public/presets/denta-presets/Denta#8.xmp
<x:xmpmeta xmlns:x="adobe:ns:meta/" x:xmptk="Adobe XMP Core 5.6-c140 79.160451, 2017/05/06-01:08:21        ">
 <rdf:RDF xmlns:rdf="http://www.w3.org/1999/02/22-rdf-syntax-ns#">
  <rdf:Description rdf:about=""
    xmlns:crs="http://ns.adobe.com/camera-raw-settings/1.0/"
   crs:PresetType="Normal"
   crs:Cluster=""
   crs:UUID="983AC5ACA4BA41ED88F743558DD5AB25"
   crs:SupportsAmount="False"
   crs:SupportsColor="True"
   crs:SupportsMonochrome="True"
   crs:SupportsHighDynamicRange="True"
   crs:SupportsNormalDynamicRange="True"
   crs:SupportsSceneReferred="True"
   crs:SupportsOutputReferred="True"
   crs:CameraModelRestriction=""
   crs:Copyright=""
   crs:ContactInfo=""
   crs:Version="13.1"
   crs:ProcessVersion="11.0"
   crs:WhiteBalance="Custom"
   crs:IncrementalTemperature="+2"
   crs:IncrementalTint="-10"
   crs:Exposure2012="-0.06"
   crs:Contrast2012="+40"
   crs:Highlights2012="-95"
   crs:Shadows2012="+74"
   crs:Whites2012="+25"
   crs:Blacks2012="+49"
   crs:Texture="+5"
   crs:Clarity2012="+3"
   crs:Dehaze="+11"
   crs:Vibrance="+4"
   crs:Saturation="-3"
   crs:ParametricShadows="0"
   crs:ParametricDarks="0"
   crs:ParametricLights="0"
   crs:ParametricHighlights="0"
   crs:ParametricShadowSplit="14"
   crs:ParametricMidtoneSplit="43"
   crs:ParametricHighlightSplit="75"
   crs:Sharpness="11"
   crs:SharpenRadius="+1.0"
   crs:SharpenDetail="25"
   crs:SharpenEdgeMasking="0"
   crs:LuminanceSmoothing="13"
   crs:LuminanceNoiseReductionDetail="28"
   crs:LuminanceNoiseReductionContrast="0"
   crs:ColorNoiseReduction="11"
   crs:ColorNoiseReductionDetail="50"
   crs:ColorNoiseReductionSmoothness="50"
   crs:HueAdjustmentRed="+30"
   crs:HueAdjustmentOrange="-8"
   crs:HueAdjustmentYellow="-80"
   crs:HueAdjustmentGreen="-62"
   crs:HueAdjustmentAqua="-13"
   crs:HueAdjustmentBlue="-17"
   crs:HueAdjustmentPurple="-4"
   crs:HueAdjustmentMagenta="+19"
   crs:SaturationAdjustmentRed="-100"
   crs:SaturationAdjustmentOrange="-51"
   crs:SaturationAdjustmentYellow="-45"
   crs:SaturationAdjustmentGreen="-82"
   crs:SaturationAdjustmentAqua="-32"
   crs:SaturationAdjustmentBlue="-69"
   crs:SaturationAdjustmentPurple="-27"
   crs:SaturationAdjustmentMagenta="-24"
   crs:LuminanceAdjustmentRed="+23"
   crs:LuminanceAdjustmentOrange="+17"
   crs:LuminanceAdjustmentYellow="+26"
   crs:LuminanceAdjustmentGreen="-53"
   crs:LuminanceAdjustmentAqua="-29"
   crs:LuminanceAdjustmentBlue="-44"
   crs:LuminanceAdjustmentPurple="-1"
   crs:LuminanceAdjustmentMagenta="+1"
   crs:SplitToningShadowHue="27"
   crs:SplitToningShadowSaturation="1"
   crs:SplitToningHighlightHue="48"
   crs:SplitToningHighlightSaturation="1"
   crs:SplitToningBalance="0"
   crs:ColorGradeMidtoneHue="0"
   crs:ColorGradeMidtoneSat="0"
   crs:ColorGradeShadowLum="0"
   crs:ColorGradeMidtoneLum="0"
   crs:ColorGradeHighlightLum="0"
   crs:ColorGradeBlending="100"
   crs:ColorGradeGlobalHue="0"
   crs:ColorGradeGlobalSat="0"
   crs:ColorGradeGlobalLum="0"
   crs:GrainAmount="0"
   crs:PostCropVignetteAmount="-10"
   crs:PostCropVignetteMidpoint="44"
   crs:PostCropVignetteFeather="47"
   crs:PostCropVignetteRoundness="-13"
   crs:PostCropVignetteStyle="1"
   crs:PostCropVignetteHighlightContrast="19"
   crs:ShadowTint="-2"
   crs:RedHue="+34"
   crs:RedSaturation="+44"
   crs:GreenHue="+79"
   crs:GreenSaturation="-14"
   crs:BlueHue="-11"
   crs:BlueSaturation="+1"
   crs:ConvertToGrayscale="False"
   crs:OverrideLookVignette="True"
   crs:ToneCurveName2012="Custom"
   crs:CameraProfile="Default Color"
   crs:HasSettings="True">
   <crs:Name>
    <rdf:Alt>
     <rdf:li xml:lang="x-default">Denta#8</rdf:li>
    </rdf:Alt>
   </crs:Name>
   <crs:ShortName>
    <rdf:Alt>
     <rdf:li xml:lang="x-default"/>
    </rdf:Alt>
   </crs:ShortName>
   <crs:SortName>
    <rdf:Alt>
     <rdf:li xml:lang="x-default"/>
    </rdf:Alt>
   </crs:SortName>
   <crs:Group>
    <rdf:Alt>
     <rdf:li xml:lang="x-default"/>
    </rdf:Alt>
   </crs:Group>
   <crs:Description>
    <rdf:Alt>
     <rdf:li xml:lang="x-default"/>
    </rdf:Alt>
   </crs:Description>
   <crs:ToneCurvePV2012>
    <rdf:Seq>
     <rdf:li>0, 21</rdf:li>
     <rdf:li>52, 55</rdf:li>
     <rdf:li>94, 95</rdf:li>
     <rdf:li>131, 123</rdf:li>
     <rdf:li>192, 177</rdf:li>
     <rdf:li>255, 238</rdf:li>
    </rdf:Seq>
   </crs:ToneCurvePV2012>
   <crs:ToneCurvePV2012Red>
    <rdf:Seq>
     <rdf:li>0, 0</rdf:li>
     <rdf:li>21, 4</rdf:li>
     <rdf:li>56, 19</rdf:li>
     <rdf:li>122, 121</rdf:li>
     <rdf:li>152, 168</rdf:li>
     <rdf:li>181, 204</rdf:li>
     <rdf:li>255, 255</rdf:li>
    </rdf:Seq>
   </crs:ToneCurvePV2012Red>
   <crs:ToneCurvePV2012Green>
    <rdf:Seq>
     <rdf:li>0, 0</rdf:li>
     <rdf:li>53, 21</rdf:li>
     <rdf:li>84, 63</rdf:li>
     <rdf:li>102, 94</rdf:li>
     <rdf:li>120, 125</rdf:li>
     <rdf:li>179, 205</rdf:li>
     <rdf:li>226, 240</rdf:li>
     <rdf:li>255, 255</rdf:li>
    </rdf:Seq>
   </crs:ToneCurvePV2012Green>
   <crs:ToneCurvePV2012Blue>
    <rdf:Seq>
     <rdf:li>0, 0</rdf:li>
     <rdf:li>46, 22</rdf:li>
     <rdf:li>119, 122</rdf:li>
     <rdf:li>176, 202</rdf:li>
     <rdf:li>255, 255</rdf:li>
    </rdf:Seq>
   </crs:ToneCurvePV2012Blue>
  </rdf:Description>
 </rdf:RDF>
</x:xmpmeta>
