public/presets/denta-presets/Denta - Night 2.xmp
<x:xmpmeta xmlns:x="adobe:ns:meta/" x:xmptk="Adobe XMP Core 7.0-c000 1.000000, 0000/00/00-00:00:00        ">
 <rdf:RDF xmlns:rdf="http://www.w3.org/1999/02/22-rdf-syntax-ns#">
  <rdf:Description rdf:about=""
    xmlns:crs="http://ns.adobe.com/camera-raw-settings/1.0/"
   crs:PresetType="Normal"
   crs:Cluster=""
   crs:UUID="7FB45F44A1684B83A5065E9B1FA81FE9"
   crs:SupportsAmount2="True"
   crs:SupportsAmount="True"
   crs:SupportsColor="True"
   crs:SupportsMonochrome="True"
   crs:SupportsHighDynamicRange="True"
   crs:SupportsNormalDynamicRange="True"
   crs:SupportsSceneReferred="True"
   crs:SupportsOutputReferred="True"
   crs:RequiresRGBTables="False"
   crs:ShowInPresets="True"
   crs:ShowInQuickActions="False"
   crs:CameraModelRestriction=""
   crs:Copyright=""
   crs:ContactInfo=""
   crs:Version="18.4"
   crs:ProcessVersion="15.4"
   crs:WhiteBalance="Custom"
   crs:Temperature="5500"
   crs:Tint="-20"
   crs:Exposure2012="+0.30"
   crs:Contrast2012="+21"
   crs:Highlights2012="-14"
   crs:Shadows2012="+38"
   crs:Whites2012="-7"
   crs:Blacks2012="+24"
   crs:Texture="0"
   crs:Clarity2012="+8"
   crs:Dehaze="0"
   crs:Vibrance="+5"
   crs:Saturation="-14"
   crs:ParametricShadows="+30"
   crs:ParametricDarks="-15"
   crs:ParametricLights="-55"
   crs:ParametricHighlights="-10"
   crs:ParametricShadowSplit="12"
   crs:ParametricMidtoneSplit="56"
   crs:ParametricHighlightSplit="75"
   crs:Sharpness="0"
   crs:LuminanceSmoothing="0"
   crs:ColorNoiseReduction="49"
   crs:ColorNoiseReductionDetail="32"
   crs:ColorNoiseReductionSmoothness="45"
   crs:HueAdjustmentRed="+13"
   crs:HueAdjustmentOrange="+25"
   crs:HueAdjustmentYellow="-50"
   crs:HueAdjustmentGreen="+29"
   crs:HueAdjustmentAqua="-25"
   crs:HueAdjustmentBlue="+14"
   crs:HueAdjustmentPurple="-4"
   crs:HueAdjustmentMagenta="-25"
   crs:SaturationAdjustmentRed="+66"
   crs:SaturationAdjustmentOrange="+52"
   crs:SaturationAdjustmentYellow="-12"
   crs:SaturationAdjustmentGreen="-60"
   crs:SaturationAdjustmentAqua="-65"
   crs:SaturationAdjustmentBlue="+25"
   crs:SaturationAdjustmentPurple="-12"
   crs:SaturationAdjustmentMagenta="-20"
   crs:LuminanceAdjustmentRed="-36"
   crs:LuminanceAdjustmentOrange="-2"
   crs:LuminanceAdjustmentYellow="+10"
   crs:LuminanceAdjustmentGreen="-25"
   crs:LuminanceAdjustmentAqua="-15"
   crs:LuminanceAdjustmentBlue="-14"
   crs:LuminanceAdjustmentPurple="-12"
   crs:LuminanceAdjustmentMagenta="+5"
   crs:SplitToningShadowHue="286"
   crs:SplitToningShadowSaturation="15"
   crs:SplitToningHighlightHue="232"
   crs:SplitToningHighlightSaturation="20"
   crs:SplitToningBalance="0"
   crs:ColorGradeMidtoneHue="0"
   crs:ColorGradeMidtoneSat="0"
   crs:ColorGradeShadowLum="0"
   crs:ColorGradeMidtoneLum="0"
   crs:ColorGradeHighlightLum="0"
   crs:ColorGradeBlending="100"
   crs:ColorGradeGlobalHue="0"
   crs:ColorGradeGlobalSat="0"
   crs:ColorGradeGlobalLum="0"
   crs:GrainAmount="0"
   crs:PostCropVignetteAmount="0"
   crs:ShadowTint="-46"
   crs:RedHue="+4"
   crs:RedSaturation="-16"
   crs:GreenHue="+52"
   crs:GreenSaturation="-10"
   crs:BlueHue="+38"
   crs:BlueSaturation="+21"
   crs:HDREditMode="0"
   crs:CurveRefineSaturation="100"
   crs:OverrideLookVignette="False"
   crs:ToneCurveName2012="Custom"
   crs:HasSettings="True"
   crs:AsShotTemperature="5200"
   crs:AsShotTint="9">
   <crs:Name>
    <rdf:Alt>
     <rdf:li xml:lang="x-default">Denta - Night 2</rdf:li>
    </rdf:Alt>
   </crs:Name>
   <crs:ShortName>
    <rdf:Alt>
     <rdf:li xml:lang="x-default"/>
    </rdf:Alt>
   </crs:ShortName>
   <crs:SortName>
    <rdf:Alt>
     <rdf:li xml:lang="x-default"/>
    </rdf:Alt>
   </crs:SortName>
   <crs:Group>
    <rdf:Alt>
     <rdf:li xml:lang="x-default"/>
    </rdf:Alt>
   </crs:Group>
   <crs:Description>
    <rdf:Alt>
     <rdf:li xml:lang="x-default"/>
    </rdf:Alt>
   </crs:Description>
   <crs:ToneCurvePV2012>
    <rdf:Seq>
     <rdf:li>0, 29</rdf:li>
     <rdf:li>31, 44</rdf:li>
     <rdf:li>121, 120</rdf:li>
     <rdf:li>221, 218</rdf:li>
     <rdf:li>255, 248</rdf:li>
    </rdf:Seq>
   </crs:ToneCurvePV2012>
   <crs:ToneCurvePV2012Red>
    <rdf:Seq>
     <rdf:li>0, 0</rdf:li>
     <rdf:li>47, 17</rdf:li>
     <rdf:li>87, 65</rdf:li>
     <rdf:li>117, 121</rdf:li>
     <rdf:li>150, 168</rdf:li>
     <rdf:li>178, 202</rdf:li>
     <rdf:li>235, 242</rdf:li>
     <rdf:li>255, 255</rdf:li>
    </rdf:Seq>
   </crs:ToneCurvePV2012Red>
   <crs:ToneCurvePV2012Green>
    <rdf:Seq>
     <rdf:li>0, 0</rdf:li>
     <rdf:li>43, 20</rdf:li>
     <rdf:li>83, 66</rdf:li>
     <rdf:li>117, 120</rdf:li>
     <rdf:li>182, 199</rdf:li>
     <rdf:li>221, 230</rdf:li>
     <rdf:li>255, 255</rdf:li>
    </rdf:Seq>
   </crs:ToneCurvePV2012Green>
   <crs:ToneCurvePV2012Blue>
    <rdf:Seq>
     <rdf:li>0, 4</rdf:li>
     <rdf:li>41, 24</rdf:li>
     <rdf:li>77, 68</rdf:li>
     <rdf:li>113, 124</rdf:li>
     <rdf:li>144, 168</rdf:li>
     <rdf:li>175, 206</rdf:li>
     <rdf:li>215, 235</rdf:li>
     <rdf:li>255, 255</rdf:li>
    </rdf:Seq>
   </crs:ToneCurvePV2012Blue>
   <crs:Look>
    <rdf:Description
     crs:Name="Apple ProRaw"
     crs:Amount="1"
     crs:UUID="D866CAE82BD24C3F896B6762BDDA6C50"
     crs:SupportsMonochrome="false"
     crs:SupportsOutputReferred="false"
     crs:Copyright="© 2021 Adobe Systems, Inc."
     crs:Stubbed="true">
    <crs:Group>
     <rdf:Alt>
      <rdf:li xml:lang="x-default">Profiles</rdf:li>
     </rdf:Alt>
    </crs:Group>
    </rdf:Description>
   </crs:Look>
  </rdf:Description>
 </rdf:RDF>
</x:xmpmeta>
